X:9475
T:Leicester House. JB.53
M:4/4
L:1/8
Q:160
S:James Biggins MS, Leeds, 1779.
R:Strathspey
O:England
A:Yorkshire
Z:vmp.Nick Barber & Chris Partington
K:G
c|B>Gd>c B>Ge>c|B>Gg>B c>AA>c|
!B>Gd>B e.fg.e|B>GA>F G>G,G,:|!
|:d|gd B/c/d/B/ gd B/c/d/B/|gd B/c/d/B/ aAAf|!
gd B/c/d/B/ gd B/c/d/B/|c>Ad>c B>GG:|]


